src/android-mail.svg

<?xml version="1.0" encoding="utf-8"?>
<!-- Generated by IcoMoon.io -->
<!DOCTYPE svg PUBLIC "-//W3C//DTD SVG 1.1//EN" "http://www.w3.org/Graphics/SVG/1.1/DTD/svg11.dtd">
<svg version="1.1" xmlns="http://www.w3.org/2000/svg" xmlns:xlink="http://www.w3.org/1999/xlink" width="512" height="512" viewBox="0 0 512 512">
<path fill="#000000" d="M437.332 80h-362.664c-23.469 0-42.668 19.198-42.668 42.667v266.666c0 23.469 19.199 42.667 42.668 42.667h362.664c23.469 0 42.668-19.198 42.668-42.667v-266.666c0-23.469-19.199-42.667-42.668-42.667zM432 170.667l-176 117.333-176-117.333v-42.667l176 117.333 176-117.333v42.667z"></path>
</svg>

<?xml version="1.0" encoding="utf-8"?>
<!-- Generator: Adobe Illustrator 16.2.1, SVG Export Plug-In . SVG Version: 6.00 Build 0)  -->
<!DOCTYPE svg PUBLIC "-//W3C//DTD SVG 1.1//EN" "http://www.w3.org/Graphics/SVG/1.1/DTD/svg11.dtd">
<svg version="1.1" id="Layer_1" xmlns="http://www.w3.org/2000/svg" xmlns:xlink="http://www.w3.org/1999/xlink" x="0px" y="0px"
	 width="512px" height="512px" viewBox="0 0 512 512" enable-background="new 0 0 512 512" xml:space="preserve">
<g id="Icon_19_">
	<g>
		<path d="M437.332,80H74.668C51.199,80,32,99.198,32,122.667v266.666C32,412.802,51.199,432,74.668,432h362.664
			C460.801,432,480,412.802,480,389.333V122.667C480,99.198,460.801,80,437.332,80z M432,170.667L256,288L80,170.667V128
			l176,117.333L432,128V170.667z"/>
	</g>
</g>
</svg>
